!!!ONB: MCCC : IJH0428_04 : Extracted Monophonic Melody
!!!COM: Haydn, Joseph
!!!OPR: String Quartet in D major
!!!OMV: 4
!!!SCT: Hob.III:34 ; Op.20 No.4
!!!ODT: 1772///
**kern
*thru
*k[f#c#]
*D:
*clefG
*M4/4
8aa
=1
16ff#
16gg
16aa
16ff#
8gg
8ee
8cc#
16b
16a
8b
8cc#
=2
4dd
4dd#
4ee
8r
8ff#
=3
16gg
16aa
16bb
16gg
8ee
8gg
8ff#
16ee
16dd
8cc#
8dd
=4
4ee
4g#
4a
8r
8dd
=5
16ee
16ff#
16gg
16ee
8ff#
8ddd
24ddd
24ccc#
24bb
8aa
24ddd
24ccc#
24bb
8aa
=6
24bb
24aa
24gg
8ff#
24aa
24gg
24ff#
8ee
4dd
8r
8a
=7
4aa
8.aa
16gg#
4aa
4ee
=8
2ff
8cc#
8r
16ff
16ff
16ff
16ff
=9
8ff
8r
16ff
16ff
16ff
16ff
8ff
8r
16ff
16cc#
16ff
16cc#
=10
4dd
4a
4.f
16e
16d
=11
4c#
4a
4A
8r
8aa
=12
16ff#
16gg
16aa
16ff#
8gg
8ee
8cc#
16b
16a
8b
8cc#
=13
4dd
4dd#
4ee
4r
=14
4ee
4ee#
4ff#
8r
8ff#
=15
4gg
8r
8gg
4gg#
8r
8gg#
=16
4aa
8r
8gg
8ff#
8aa#
8bb
8aa
=17
8gg
8aa#
8bb
8aa
8gg
8aa#
8bb
8gg
=18
2ff#
4ee
8r
8ee
=19
16cc#
16dd
16ee
16cc#
8dd
8b
16a
16b
16cc#
16a
8b
8g#
=20
8a
4ee
4ee
4ee
8ee
=21
16cc#
16dd
16ee
16cc#
16a
16b
16cc#
16a
4e
4r
=22
16cc
16dd
16ee
16cc
16a
16b
16cc
16a
4e
4r
=23
16aa
16gg#
16aa
16gg#
16aa
16gg#
16aa
16gg#
4aa
8.a
16a
=24
4a
8.bb-
16bb-
4bb-
8.b-
16b-
=25
4b-
2r
8.a
16a
=26
4a
2r
8.a
16a
=27
6..a[
48a]
16g#
16a
16b
8cc
8cc
8b
8a
=28
8g#
8a
8b
8cc
4.b
8a
=29
8g#
8a
8b
8cc
4.b
8a
=30
8g#
8a
8b
8cc
4.b
8e
=31
16d
16c#
16d
16c#
16d
16c#
16d
16c#
16d
16c#
16d
16c#
16d
16c#
16d
16c#
=32
4d
8.G#
16G#
4.G#
8dd
=33
16cc#
16dd
16ee
16cc#
16a
16b
16cc#
16a
4f#
4r
=34
16dd
16ee
16ff#
16dd
16b
16cc#
16dd
16b
4g#
4r
=35
16ee
16ff#
16gg#
16ee
16cc#
16dd
16ee
16cc#
4a
4r
=36
16ff#
16gg#
16aa
16ff#
16dd
16ee
16ff#
16dd
4b
4r
=37
16gg#
16aa
16bb
16gg#
16ee
16ff#
16gg#
16ee
4cc#
4aa
=38
2.ddd
4ccc#
=39
4ddd
4ccc#
16bb
16ccc#
16ddd
16bb
8ee
8gg#
=40
4a
8a
8a
8b
8b
8cc#
8cc#
=41
8dd
8dd
8cc#
8cc#
8dd
8dd
8cc#
8cc#
=42
8b
8b
8a
8a
8b
8b
8e
8e
=43
8a
8r
16a
16b
16cc#
16a
16b
16cc#
16dd
16b
16cc#
16dd
16ee
16cc#
=44
16dd
16ee
16ff#
16dd
16cc#
16dd
16ee
16cc#
16dd
16ee
16ff#
16dd
16cc#
16dd
16ee
16cc#
=45
16b
16cc#
16dd
16b
16a
16b
16cc#
16a
16b
16cc#
16dd
16b
16g#
16a
16b
16g#
=46
8a
8r
8ee
8dd#
8ee
8dd#
8ee
8dd#
=47
8ee
8r
16ee
16dd#
16ee
16dd#
8ee
8r
8ee
8ff#
=48
8gg
8ff#
8gg
8ff#
8gg
8r
16gg
16ff#
16gg
16ff#
=49
8gg
8r
16a
16b
16cc#
16b
16a
16b
16cc#
16dd
16ee
16ff#
16gg
16aa
=50
2gg
4ff#
4ee
=51
2.dd
8ee
8b
=52
4dd
4cc
2cc[
=53
8cc]
8ccc
8aa
8ff#
4dd
4cc
=54
4cc
4b
2b[
=55
4b]
4gg
4ee
4dd
=56
4cc#
16ff#
16ee#
16ff#
16ee#
2ff#[
=57
4ff#]
16ff#
16ee#
16ff#
16ee#
4.ff#
8ee
=58
16dd
16ee
16ff#
16dd
16b
16cc#
16dd
16b
2bb[
=59
4bb]
16bb
16aa#
16bb
16aa#
4.bb
8aa
=60
16gg
16aa
16bb
16gg
16ee
16ff#
16gg
16ee
2eee[
=61
4eee]
16eee
16ddd#
16eee
16ddd#
4.eee
8dd
=62
16cc#
16dd
16ee
16cc#
16a
16b
16cc#
16a
2aa[
=63
4aa]
16aa
16gg#
16aa
16gg#
4.aa
8gg
=64
16ff#
16gg
16aa
16ff#
16dd
16ee
16ff#
16dd
2ddd[
=65
4ddd]
16ddd
16ccc#
16ddd
16ccc#
2ddd
=66
16bb
16ccc
16ddd
16bb
16gg
16aa
16bb
16gg
8dd
4.r
=67
16b
16cc#
16dd
16b
16g
16a
16b
16g
4f#
4e#
=68
4f#
8.ff#
16ff#
4ff#
8.gg
16gg
=69
4gg
2r
8.a#
16a#
=70
4a#
2.r
=71
4r
8b
8b
8cc#
8cc#
8f#
8f#
=72
8b
8b
16b
16cc#
16dd
16b
16cc#
16dd
16ee
16cc#
8f#
8a#
=73
4b
8b
8b
8cc#
8cc#
8f#
8f#
=74
8b
8b
16b
16cc#
16dd
16b
16cc#
16dd
16ee
16cc#
8f#
8a#
=75
4b
4cc#
2dd[
=76
4dd]
4dd#
2ee[
=77
4ee]
4ee#
2ff#[
=78
4ff#]
8aa
8gg
2gg[
=79
8gg]
8r
16gg
16ff#
16gg
16ff#
8gg
8r
16gg
16ff#
16gg
16ff#
=80
8gg
8r
16a
16b
16cc#
16b
16a
16b
16cc#
16dd
16ee
16ff#
16gg
16aa
=81
16ff#
16gg
16aa
16ff#
8gg
8ee
8cc#
16b
16a
8b
8cc#
=82
4dd
4dd#
4ee
8r
8ff#
=83
16gg
16aa
16bb
16gg
8ee
8gg
8ff#
16ee
16dd
8cc#
8dd
=84
4ee
4g#
4a
8r
8dd
=85
16ee
16ff#
16gg
16ee
8ff#
8ddd
24ddd
24ccc#
24bb
8aa
24ddd
24ccc#
24bb
8aa
=86
24bb
24aa
24gg
8ff#
24aa
24gg
24ff#
8ee
4dd
8r
8a
=87
4aa
8.aa
16gg#
4aa
4ee
=88
2ff
8cc#
8r
16ff
16ff
16ff
16ff
=89
8ff
8r
16ff
16ff
16ff
16ff
8ff
8r
16ff
16cc#
16ff
16cc#
=90
4dd
4a
4.f
16e
16d
=91
4c#
8e
8e
8f
8f
8g#
8g#
=92
4a
16e
16f
16g
16e
16f
16g
16a
16f
16d
16e
16f
16d
=93
4e
8e
8e
8f
8f
8g#
8g#
=94
4a
16e
16f
16g
16e
16f
16g
16a
16f
16d
16e
16f
16d
=95
4e
3..r
24r
8aa
=96
16ff#
16gg
16aa
16ff#
8gg
8ee
16dd
16ee
16ff#
16dd
8ee
8cc#
=97
8dd
4aa
4aa
4aa
8aa
=98
16ff#
16gg
16aa
16ff#
16dd
16ee
16ff#
16dd
4a
4r
=99
16ff
16gg
16aa
16ff
16dd
16ee
16ff
16dd
4a
4r
=100
16ddd
16ccc#
16ddd
16ccc#
16ddd
16ccc#
16ddd
16ccc#
4ddd
8.d
16d
=101
4d
8.ee-
16ee-
4ee-
8.e-
16e-
=102
4e-
2r
8.d
16d
=103
4d
2r
8.dd
16dd
=104
6..dd[
48dd]
16cc#
16dd
16ee
8ff
8ff
8ee
8dd
=105
8cc#
8dd
8ee
8ff
4.ee
8dd
=106
8cc#
8dd
8ee
8ff
4.ee
8dd
=107
8cc#
8dd
8ee
8ff
4.ee
8a
=108
16g
16f#
16g
16f#
16g
16f#
16g
16f#
16g
16f#
16g
16f#
16g
16f#
16g
16f#
=109
4g
8.B-
16B-
4.A
8gg
=110
16ff#
16gg
16aa
16ff#
16dd
16ee
16ff#
16dd
4b
4r
=111
16gg
16aa
16bb
16gg
16ee
16ff#
16gg
16ee
4cc#
4r
=112
16aa
16bb
16ccc#
16aa
16ff#
16gg
16aa
16ff#
4dd
4r
=113
16bb
16ccc#
16ddd
16bb
16gg
16aa
16bb
16gg
4ee
4r
=114
16ccc#
16ddd
16eee
16ccc#
16aa
16bb
16ccc#
16aa
4ff#
8ddd
8dd
=115
2.gg
4ff#
=116
4gg
8ff#
8dd
16ee
16ff#
16gg
16ee
8a
8cc#
=117
4d
8dd
8dd
8ee
8ee
8ff#
8ff#
=118
8gg
8gg
8ff#
8ff#
8gg
8gg
8ff#
8ff#
=119
8ee
8ee
8dd
8dd
8ee
8ee
8a
8a
=120
4dd
16dd
16ee
16ff#
16dd
16ee
16ff#
16gg
16ee
16ff#
16gg
16aa
16ff#
=121
16gg
16aa
16bb
16gg
16ff#
16gg
16aa
16ff#
16gg
16aa
16bb
16gg
16ff#
16gg
16aa
16ff#
=122
16ee
16ff#
16gg
16ee
16dd
16ee
16ff#
16dd
16ee
16ff#
16gg
16ee
16cc#
16dd
16ee
16cc#
=123
4dd
8aa
8gg#
8aa
8gg#
8aa
8gg#
=124
8aa
8r
16aa
16gg#
16aa
16gg#
8aa
8r
8aa
8bb
=125
2ccc
4bb
4aa
=126
2.gg
8ff#
8ee
=127
8aa
8r
16aa
16gg#
16aa
16gg#
8aa
8r
8ff#
8ff#
=128
8ff#
8r
8dd
8dd
8dd
8r
8f#
8f#
=129
2.g
8e
8c#
=130
2c#
4d
4r
==
*-
